src/main/resources/icons/UIDesignerIcons/com/intellij/uiDesigner/icons/expandNode_dark.svg

<svg xmlns="http://www.w3.org/2000/svg" width="9" height="9" viewBox="0 0 9 9"><rect id="frame" width="9" height="9" fill="none"/><path fill="#AFB1B3" fill-rule="evenodd" d="M5 4h2v1H5v2H4V5H2V4h2V2h1v2zM0 0h9v9H0V0zm1 1v7h7V1H1z"/></svg>

<svg xmlns="http://www.w3.org/2000/svg" width="9" height="9" viewBox="0 0 9 9">
  <path fill="#AFB1B3" fill-rule="evenodd" d="M5,4 L7,4 L7,5 L5,5 L5,7 L4,7 L4,5 L2,5 L2,4 L4,4 L4,2 L5,2 L5,4 Z M0,0 L9,0 L9,9 L0,9 L0,0 Z M1,1 L1,8 L8,8 L8,1 L1,1 Z"/>
</svg>
